X: 157
T: The redhaired hag
C: anon.
O: Ireland
B: Francis O'Neill: "The Dance Music of Ireland" (1907) no. 157
R: Double jig
Z: Transcribed by Frank Nordberg - http://www.musicaviva.com
F: http://www.musicaviva.com/abc/tunes/ireland/oneill-1001/oneill-1001-015
7.abc
M: 6/8
L: 1/8
K: A
f|ecA aeA|cde =gfg|B=GG dGG|Bcd d2f|ecA aeA|cde fga|def =gdB|ecA A2
:|
e|agf ecA|cde fga|B=GB dBG|Bcd d2e|agf ecA|cde a3|def =gdB|ecA A2:|
W:
W:
W: From Musica Viva - http://www.musicaviva.com
W: the Internet center for free sheet music downloads.


